static/images/mobile/copyright/wikipedia-wordmark-ps.svg

<?xml version="1.0" encoding="UTF-8"?>
<svg xmlns="http://www.w3.org/2000/svg" width="73" height="27" viewBox="0 0 73 27">
	<title>
		ps-wordmark
	</title>
	<g id="Page-1" fill="none" fill-rule="evenodd" stroke="none" stroke-width="1">
		<path id="ps-wordmark" fill="#000" fill-rule="nonzero" d="M70.0190671,11.011426 C71.27407,12.5157255 71.9875339,13.7879259 72.1594623,14.8280326 L72.1594623,15.3437903 L72.1594623,15.3437903 C72.1594623,17.6475078 72.0477065,19.0572454 71.8242189,19.5730031 C70.844272,21.6704139 69.8987181,23.1274288 68.9875517,23.9440496 C67.0534578,25.5171022 65.5491655,26.5357222 64.4746732,26.9999133 C64.5262471,26.355208 64.6895713,25.4956119 64.964642,24.421125 C67.3027397,23.2434738 69.0090366,21.3136819 70.0835363,18.6317458 C70.1608935,18.0901993 70.0878292,17.703382 69.8643398,17.4712901 L69.4775224,17.5099724 C69.2196381,17.613124 68.9273754,17.6646997 68.6007344,17.6646997 C68.1021632,17.6646997 67.5778105,17.5400597 67.0276727,17.2907759 C67.0706497,16.3022413 67.448872,15.2277471 68.1623395,14.0672896 L70.0190671,11.011426 Z M25.7025909,22.8093828 C25.7025891,22.8093828 26.2312402,23.3423269 27.2885462,24.4082315 L25.6381217,26.1360188 L24.1424235,24.5500635 L25.7025909,22.8093828 Z M34.1868034,22.1131091 L34.2308562,22.1575213 C34.3777017,22.305562 34.8916689,22.8237054 35.7727587,23.7119578 L34.1223342,25.4397469 L32.626637,23.8537916 L34.1868034,22.1131091 Z M42.7741693,19.7406238 L42.7937474,19.7603626 C42.8981685,19.8656363 43.4202938,20.392005 44.3601246,21.3394726 L42.7097001,23.0672616 L41.2140029,21.4813064 L42.7741693,19.7406238 Z M39.2928042,19.7277304 C39.2928024,19.7277304 39.8214535,20.2606781 40.8787595,21.3265791 L39.228335,23.0543663 L37.7326378,21.4684129 L39.2928042,19.7277304 Z M62.3213845,19.5730031 C62.321379,19.5730031 62.8500301,20.1059508 63.9073398,21.1718518 L62.2569153,22.899639 L60.761218,21.3136856 L62.3213845,19.5730031 Z M10.2814366,19.5730031 L10.3597526,19.6519583 C10.542494,19.8361874 11.04504,20.3428177 11.8673913,21.1718518 L10.2169668,22.899639 L8.72126961,21.3136856 L10.2814366,19.5730031 Z M58.8400194,19.5601096 C58.8400176,19.5601096 59.3686687,20.0930573 60.4259747,21.1589583 L58.7755502,22.8867455 L57.279853,21.3007903 L58.8400194,19.5601096 Z M6.80007236,19.5601096 C6.80007073,19.5601096 7.3287218,20.0930573 8.38602714,21.1589583 L6.73560266,22.8867455 L5.23990545,21.3007903 L6.80007236,19.5601096 Z M35.9532748,19.250655 L35.9728528,19.2703938 C36.0772739,19.3756675 36.5993991,19.9020362 37.5392282,20.8495037 L35.8888037,22.5772909 L34.3931065,20.9913357 L35.9532748,19.250655 Z M25.7025909,19.250655 C25.7025891,19.250655 26.2312402,19.7836027 27.2885462,20.8495037 L25.6381217,22.5772909 L24.1424235,20.9913357 L25.7025909,19.250655 Z M32.4719097,19.2377597 L32.4914888,19.2574985 C32.5959125,19.3627725 33.1180374,19.8891425 34.0578649,20.8366084 L32.4074404,22.5643975 L30.9117432,20.9784422 L32.4719097,19.2377597 Z M56.4030649,0.65759092 C56.5749713,0.65759092 56.6609309,0.760759872 56.6609438,0.967045514 C56.6609309,1.2249414 56.4890117,1.69342081 56.1451861,2.3724843 L55.4875946,3.68766724 C54.3787056,4.33237807 53.4632371,4.82664536 52.7411856,5.17047096 C51.7268549,5.66904953 49.5864633,6.6146034 46.3200037,8.00713807 C46.6036676,9.03866255 47.2268734,10.2377968 48.1896247,11.6045463 C49.1437718,13.1002491 49.9131098,14.1016771 50.4976407,14.6088361 C51.5893195,15.5543936 52.9861618,16.0271705 54.6881712,16.0271687 L58.8142324,16.0271687 C59.175261,16.0271705 59.6265475,15.7521016 60.1680958,15.2019565 C59.8844264,14.763567 59.7425926,14.4970913 59.7425962,14.402533 C59.7425926,13.3366375 59.9746844,12.554406 60.4388681,12.0558348 C60.6881483,12.0386502 60.8170868,12.0472435 60.8256873,12.0816236 C61.0491786,12.777901 61.5090621,13.6203051 62.2053395,14.6088361 C61.5864248,16.9813213 60.4302694,18.1675639 58.7368679,18.1675639 L54.6881712,18.1675639 C54.034869,18.1675639 53.0807182,17.9956447 51.8257153,17.6518062 C51.2669714,17.5142709 50.7469171,17.1274535 50.2655488,16.4913506 C48.9331703,17.247797 47.6351811,17.8065335 46.3715794,18.1675639 L43.4446543,18.1675639 C43.3414972,18.1675639 43.0707249,18.0601139 42.6323355,17.845214 C41.9962307,17.5099724 41.5965181,17.1704324 41.4331994,16.826594 L41.2140029,17.0715775 C41.1796154,17.2349017 40.9432251,17.471292 40.5048356,17.7807447 C40.1180146,18.0386236 39.9074131,18.1675639 39.873033,18.1675639 L36.5850775,18.1675639 C36.4819204,18.1675639 36.2111481,18.0601139 35.7727587,17.845214 C35.1366539,17.5099724 34.7369413,17.1704324 34.5736226,16.826594 L34.354426,17.0715775 C34.3200385,17.2349017 34.0836482,17.471292 33.6452588,17.7807447 C33.2584378,18.0386236 33.0478363,18.1675639 33.0134561,18.1675639 L29.6739249,18.1675639 C29.5707678,18.1675639 29.2999955,18.0601139 28.8616061,17.845214 C28.2255013,17.5099724 27.8257887,17.1704324 27.66247,16.826594 L27.4432735,17.0715775 C27.4088859,17.2349017 27.1724956,17.471292 26.7341062,17.7807447 C26.3472852,18.0386236 26.1366837,18.1675639 26.1023035,18.1675639 L22.9561809,18.1675639 C22.2341099,18.1675639 21.6152013,17.8022351 21.0994534,17.0715775 C20.8845454,16.7793167 20.5707931,16.147514 20.1581957,15.1761695 C19.4533194,16.5343332 18.8902844,17.2520936 18.4690893,17.3294563 C18.145793,17.3982432 17.3463831,17.6349078 16.0708584,18.0394529 L16.0966041,18.0386236 L16.0966041,18.0386236 C16.5178016,18.0386236 16.8788316,18.2191397 17.1796952,18.58017 C17.4891443,18.9497954 17.6438771,19.392487 17.6438771,19.9082446 C17.6438771,20.4240004 17.4891443,20.8623954 17.1796952,21.2234276 C16.8788316,21.5844542 16.5178016,21.7649722 16.0966041,21.7649722 C15.6496105,21.7649722 15.2756864,21.5844542 14.9748313,21.2234276 C14.6825659,20.8623954 14.5364373,20.4240004 14.5364373,19.9082446 C14.5364373,19.392487 14.6825659,18.9497954 14.9748313,18.58017 C15.0723199,18.4631823 15.1774809,18.3651487 15.2903141,18.2860694 L15.0264071,18.373867 L15.0264071,18.373867 C14.0206774,18.6661278 13.2384457,19.1346081 12.6797097,19.7793061 C12.5421736,19.624577 12.4734067,19.4053804 12.4734067,19.1217146 C12.4734067,18.9154116 12.5163857,18.6231489 12.6023461,18.2449266 C12.7226886,17.7893416 12.7914563,17.4884839 12.8086491,17.3423516 C13.8487584,16.4655655 14.8802726,15.9627013 15.9031951,15.8337591 C17.8286843,15.5329032 19.0707994,15.1460859 19.629544,14.6733053 C19.6725161,13.2979571 19.1051833,11.1317767 17.9275438,8.17475885 L19.0235289,5.96989441 C19.2212287,5.95271533 19.4920012,6.49425995 19.8358471,7.59453195 C20.1624854,8.67763219 20.6051769,10.5558483 21.1639232,13.2291839 C21.5937115,14.5959444 22.1868322,15.5286066 22.9432871,16.0271687 L25.4833944,16.0271687 C25.6896956,16.0271705 26.1409822,15.0042521 26.8372577,12.9584116 C27.7140421,12.8294767 28.1696271,12.8595621 28.2040146,13.0486678 C28.3501414,13.6417937 28.552146,14.2692997 28.8100303,14.9311841 C29.0765005,15.5930759 29.338676,15.9584029 29.5965603,16.0271687 L32.394547,16.0271687 C32.6008482,16.0271705 33.0521348,15.0042521 33.7484103,12.9584116 C34.6251947,12.8294767 35.0807797,12.8595621 35.1151672,13.0486678 C35.261294,13.6417937 35.4632986,14.2692997 35.7211829,14.9311841 C35.9876531,15.5930759 36.2498286,15.9584029 36.5077129,16.0271687 L39.2541238,16.0271687 C39.460425,16.0271705 39.9117116,15.0042521 40.6079872,12.9584116 C41.4847715,12.8294767 41.9403565,12.8595621 41.974744,13.0486678 C42.1208708,13.6417937 42.3228754,14.2692997 42.5807597,14.9311841 C42.84723,15.5930759 43.1094054,15.9584029 43.3672897,16.0271687 L44.8887757,16.0271687 C45.9976519,15.9412109 46.9174188,15.5930759 47.6480783,14.9827599 C47.5191361,14.5873494 47.0506576,13.8352033 46.2426391,12.7263197 C45.5033846,11.7120037 45.0220127,10.8781964 44.7985177,10.224896 C44.8500934,9.50284261 45.1122689,8.68622724 45.5850476,7.77504621 C46.1523792,6.57162451 46.5005161,5.77649767 46.6294583,5.38966751 C47.7383326,5.12320647 49.4274376,4.45701996 51.6967768,3.39110613 C54.1809994,2.26505084 55.7497609,1.35388063 56.4030649,0.65759092 Z M6.77428448,16.0271687 C7.13531288,16.0271705 7.58660037,15.7521016 8.12814833,15.2019565 C7.84447894,14.763567 7.70264573,14.4970913 7.70264826,14.402533 C7.70264573,13.3366375 7.93473644,12.554406 8.39892117,12.0558348 C8.64820055,12.0386502 8.77713979,12.0472435 8.78573941,12.0816236 C9.00923055,12.777901 9.469114,13.6203051 10.1653911,14.6088361 C9.54647746,16.9813213 8.39032191,18.1675639 6.69692083,18.1675639 L4.91755692,18.1675639 C3.49922014,18.1675639 2.57085727,17.9655593 2.13246565,17.5615482 C1.3072523,16.7621247 0.89464654,15.6016709 0.894647273,14.0801831 L0.894647273,7.11745474 L0.894647273,7.11745474 C0.89464654,3.87679305 0.782899047,1.98138504 0.559404797,1.4312274 L2.50638986,2.66453526e-14 C2.85022573,0.868209292 3.0608265,2.1876881 3.13819308,3.95843955 C3.26712937,5.73781722 3.29291726,7.02720953 3.21555673,7.82662198 C3.16397803,8.62605643 3.14248803,9.86387297 3.15108693,11.5400771 C3.1940638,13.4913648 3.29291726,14.6518186 3.44764767,15.0214422 C3.63675533,15.5028178 3.82156821,15.7735902 4.00208706,15.8337591 C4.44907281,15.9627013 4.75422911,16.0271705 4.91755692,16.0271687 L6.77428448,16.0271687 Z"/>
	</g>
</svg>

<svg xmlns="http://www.w3.org/2000/svg" width="73" height="27"><path fill="#000" fill-rule="nonzero" d="M70.02 11.011c1.254 1.505 1.968 2.777 2.14 3.817v.516c0 2.304-.112 3.713-.336 4.229-.98 2.097-1.925 3.554-2.836 4.371-1.935 1.573-3.439 2.592-4.513 3.056.051-.645.215-1.504.49-2.579 2.338-1.178 4.044-3.107 5.119-5.79.077-.54.004-.928-.22-1.16l-.386.039c-.258.103-.55.155-.877.155-.499 0-1.023-.125-1.573-.374.043-.989.42-2.063 1.134-3.224l1.857-3.056zM25.702 22.81l1.586 1.6-1.65 1.727-1.497-1.586 1.56-1.74zm8.484-.696.044.045 1.542 1.554-1.65 1.728-1.496-1.586 1.56-1.74zm8.587-2.372.02.02 1.566 1.578-1.65 1.728-1.496-1.586 1.56-1.74zm-3.481-.013 1.586 1.599-1.65 1.727-1.496-1.586 1.56-1.74zm23.028-.155 1.586 1.599-1.65 1.728-1.496-1.586 1.56-1.741zm-52.04 0 .079.079 1.507 1.52-1.65 1.728-1.496-1.586 1.56-1.741zm48.559-.013 1.586 1.599-1.65 1.728L57.28 21.3l1.56-1.74zm-52.04 0 1.586 1.599-1.65 1.728L5.24 21.3l1.56-1.74zm29.153-.31.02.02 1.566 1.58-1.65 1.727-1.496-1.586 1.56-1.74zm-10.25 0 1.586 1.6-1.65 1.727-1.497-1.586 1.56-1.74zm6.769-.012.02.02 1.566 1.579-1.65 1.727-1.496-1.586 1.56-1.74zM56.403.658c.172 0 .258.103.258.309 0 .258-.172.726-.516 1.405l-.657 1.316c-1.11.644-2.025 1.139-2.747 1.482-1.014.499-3.155 1.445-6.421 2.837.284 1.032.907 2.23 1.87 3.598.954 1.495 1.723 2.497 2.308 3.004 1.091.945 2.488 1.418 4.19 1.418h4.126c.361 0 .813-.275 1.354-.825-.284-.438-.425-.705-.425-.8 0-1.065.232-1.848.696-2.346.25-.017.378-.009.387.026.223.696.683 1.538 1.38 2.527-.62 2.372-1.776 3.559-3.47 3.559h-4.048c-.653 0-1.607-.172-2.862-.516-.559-.138-1.08-.525-1.56-1.16-1.333.756-2.63 1.315-3.894 1.676h-2.927c-.104 0-.374-.108-.813-.323-.636-.335-1.035-.675-1.199-1.018l-.219.245c-.034.163-.27.4-.71.709-.386.258-.597.387-.631.387h-3.288c-.103 0-.374-.108-.812-.323-.636-.335-1.036-.675-1.2-1.018l-.219.245c-.034.163-.27.4-.709.709-.387.258-.597.387-.632.387h-3.34c-.102 0-.373-.108-.811-.323-.636-.335-1.036-.675-1.2-1.018l-.219.245c-.034.163-.27.4-.709.709-.387.258-.597.387-.632.387h-3.146c-.722 0-1.34-.366-1.857-1.096-.214-.293-.528-.924-.94-1.896-.706 1.358-1.269 2.076-1.69 2.153-.323.07-1.123.306-2.398.71h.026c.42 0 .782.18 1.083.541.31.37.464.812.464 1.328s-.155.954-.464 1.315c-.301.361-.662.542-1.083.542-.447 0-.821-.18-1.122-.542-.292-.36-.439-.799-.439-1.315 0-.516.147-.958.439-1.328a1.63 1.63 0 0 1 .315-.294l-.264.088c-1.005.292-1.788.76-2.346 1.405-.138-.154-.207-.374-.207-.657 0-.207.043-.499.13-.877.12-.456.188-.757.206-.903 1.04-.876 2.071-1.38 3.094-1.508 1.926-.301 3.168-.688 3.727-1.16.043-1.376-.525-3.542-1.702-6.5l1.096-2.204c.197-.017.468.524.812 1.625.326 1.083.77 2.96 1.328 5.634.43 1.367 1.023 2.3 1.78 2.798h2.54c.206 0 .657-1.023 1.353-3.069.877-.129 1.333-.098 1.367.09.146.594.348 1.221.606 1.883.267.662.529 1.027.787 1.096h2.798c.206 0 .657-1.023 1.353-3.069.877-.129 1.333-.098 1.367.09.146.594.348 1.221.606 1.883.267.662.529 1.027.787 1.096h2.746c.206 0 .658-1.023 1.354-3.069.877-.129 1.332-.098 1.367.09.146.594.348 1.221.606 1.883.266.662.528 1.027.786 1.096h1.522c1.109-.086 2.028-.434 2.76-1.044-.13-.396-.598-1.148-1.406-2.257-.74-1.014-1.221-1.848-1.444-2.501.051-.722.313-1.539.786-2.45.567-1.203.916-1.999 1.044-2.385 1.11-.267 2.798-.933 5.068-1.999C54.18 2.265 55.75 1.354 56.403.658zM6.774 16.028c.361 0 .813-.276 1.354-.826-.284-.438-.425-.705-.425-.8 0-1.065.232-1.848.696-2.346.25-.017.378-.009.387.026.223.696.683 1.538 1.38 2.527-.62 2.372-1.776 3.559-3.47 3.559H4.919c-1.419 0-2.347-.202-2.786-.606-.825-.8-1.237-1.96-1.237-3.482V7.117c0-3.24-.112-5.136-.336-5.686L2.506 0c.344.868.555 2.188.632 3.958.13 1.78.155 3.07.078 3.869-.052.8-.074 2.037-.065 3.713.043 1.951.142 3.112.297 3.481.189.482.374.753.554.813.447.129.752.193.916.193h1.856z"/></svg>
